!!!OTL: Die J&uuml;din und der Schreiber (22a),
!!!id: T0140
**kern
*clefG2
*k[]
*C:
{8g
=1
8dd
8dd
8dd
8dd
=2
4g
8g}
=3
{8g
=4
8a
8b
8cc
8a
=5
8a
8g
8g}
=6
{8g
=7
8g
8f
8e
16d
16d
=8
4c}
=9
{8cc
8ee
=10
8dd
8cc
8a
16b
16b
=11
4cc}
8r
==
*-
!!!minrhy: 16
!!!meters: 2/4 ]  ZZ[4
!!!cut1: Die J&uuml;din und der Schreiber (22a),
!!!cut2: Melodie I, S. 90f
!!!reg: Luxemburg
!!!trd: Singendes Volk, Esch-Alzette 1937 posth.
!!!rhy1: X_  X_X_X_X_  X__X_   (x2)
!!!rhy2: X_  X_X_X_X_  X_X_X_
!!!key: T0140  16  C 2/4 ]  ZZ[4
!!!mod: HEPTATONIK IONISCH]  AMBITUS[10
!!!kad: 551+1
!!!akz: +25_66_51_+2+1_
!!!fot: 'a__b__c__d__
!!!for: 'a__b__c__cv_
!!!fok: '^__^__\__V__
!! PHRAS[AUFTAKTIG]
!!!fkt: Liebeslieder
!!!bem: Godbringen, hhh Johann Trierweiler, 1900
!! THILL, Mathias:
!! PR[30] 2K[5] 2G[9] 3K[5] 3G[0] 4A[5] 4Ü[0] 5A[0] 6K[0] 6G[0]
!! 7K[2] 7G[0] 8A[2] MEHR[0] SI[27] ABS[44] SR[14] SP[14]
!! ST[12] 2k[9] 2g[18] 3k[7] 3g[2] 4d[7] 4ü[0] 5d[0] 6k[0] 6g[0]
!! 7k[0] 7g[0] 8d[0] mehr[0] si[43] dm[-16] sr[27] sp[16]
!! 1F[13] 2F[40] 3F[38] 4F[4] LF[0] 2P[0] 3P[4] 4P[0] TRI[0] DF[5] AB[47]
!! TF[0] U3K[0] U3[0] U4[2] U4Ü[0] U5[7] U6K[0] U6[9] U7K[4] U7[4]
!! N1[38] N2K[0] N2[16] N3K[0] N3[7] N4[13] N4Ü[0] N5[0] N6K[0] N6[0]
!!!n7k: 0] N7[0] O1[0] O2K[0] O2[0] O3K[0] O3[0] HÖ[0
!!!RNB: symbol: &uuml;  = u umlaut (UTF-8: Ã¼)
